!!!SOCIAL_FUNCTION:	songs of the sun dance
!!!PDT:	1918

Specific Region: Dakotas, Minnesota, Montana, Nebraska
!!!REG: Dakotas and Montana
!!!LING_GROUP: Siouan
!!!LANG: Tone
!!!OTL@ENG: Song Sung after Raising the Sacred Pole (a)
!!!ONM: No. 14
**kern
*Imale
*clefG2
*k[f#c#]
*M2/4
*>[A,B,B]
*>norep[A,B]
*>A
*MM63
8a
16b
16a
4a
=2
2a
*>B
=3!|:
8f#
16g
16f#
4f#
=4
2f#
=5
8f#
16a
16g
16f#
8.e
=6
2e
=7
8d
16f#
16e
4e
=8
2e
=9
8.d
16d
[4d
=10
2d]
*clefF4
=11
8.B
16d
8d
8d
=12
8d
8d
4d
=13
8.B
16B
[4B
=14
2B]
=15
8.F#
16B
8B
8B
=16
8B
8B
4B
=17
8.B
16B
16B
8.B
=18
8.F#
16F#
16F#
8.F#
=19
[2F#
=20
2F#]
==:|!
*-
!!!CNT: Native American -- Sioux
!!!MRD: 1911/07//-1914///
!!!OCL: Frances Densmore
!!!YOR1: Teton Sioux Music, Bulletin 61,
!!!YOR2: Bureau of American Ethnology, Smithsonian Institution
!!!PPR: Government Printing Office
!!!PPP: Washington, D.C.
!!!PDT: 1918///
!!!ENC: Craig Stuart Sapp
!!!END: 2002/03/25/
!!!EEV: 2002/03/31/
!!!AGN: Ceremonial Song/Song of the Sun Dance
!!!MPN@@SIO: Itung'kasang-lu'ta
!!!MPN@ENG: Red Weasel
!!!TXO: Teton Sioux
!!!MLC: Standing Rock Reservation, South Dakota, United States of America
!!!ARL: 45.9/-100.7#
!!!catalog: Catalogue No. 628
!!!PPG: 119
!!!EFL: 14/245
!!!VTS: 4283074747
